src-assets/img/guillemet-open.svg

<svg width="26" height="22" viewBox="0 0 26 22" fill="none" xmlns="http://www.w3.org/2000/svg">
<path d="M6.54156 21.88C4.6749 21.88 3.18156 21.2133 2.06156 19.88C0.994896 18.4933 0.461563 16.7067 0.461563 14.52C0.461563 11.5333 1.26156 8.84 2.86156 6.44C4.5149 3.98666 7.02156 1.93333 10.3816 0.279999L11.2616 1.56C9.66156 2.52 8.1949 3.88 6.86156 5.64C5.58156 7.34666 4.94156 9.08 4.94156 10.84C4.94156 11.32 5.0749 11.72 5.34156 12.04C5.60823 12.3067 6.00823 12.44 6.54156 12.44C7.8749 12.44 8.9949 12.92 9.90156 13.88C10.8616 14.7867 11.3416 15.9067 11.3416 17.24C11.3416 18.5733 10.8616 19.6933 9.90156 20.6C8.9949 21.4533 7.8749 21.88 6.54156 21.88ZM20.3816 21.88C18.5149 21.88 17.0216 21.2133 15.9016 19.88C14.8349 18.4933 14.3016 16.7067 14.3016 14.52C14.3016 11.5333 15.1016 8.84 16.7016 6.44C18.3549 3.98666 20.8616 1.93333 24.2216 0.279999L25.1016 1.56C23.5016 2.52 22.0349 3.88 20.7016 5.64C19.4216 7.34666 18.7816 9.08 18.7816 10.84C18.7816 11.32 18.9149 11.72 19.1816 12.04C19.4482 12.3067 19.8482 12.44 20.3816 12.44C21.7149 12.44 22.8349 12.92 23.7416 13.88C24.7016 14.7867 25.1816 15.9067 25.1816 17.24C25.1816 18.5733 24.7016 19.6933 23.7416 20.6C22.8349 21.4533 21.7149 21.88 20.3816 21.88Z" fill="#B81734"/>
</svg>

<svg width="26" height="22" viewBox="0 0 26 22" fill="none" xmlns="http://www.w3.org/2000/svg"><path d="M6.542 21.88c-1.867 0-3.36-.667-4.48-2-1.067-1.387-1.6-3.173-1.6-5.36 0-2.987.8-5.68 2.4-8.08 1.653-2.453 4.16-4.507 7.52-6.16l.88 1.28c-1.6.96-3.067 2.32-4.4 4.08-1.28 1.707-1.92 3.44-1.92 5.2 0 .48.133.88.4 1.2.266.267.666.4 1.2.4 1.333 0 2.453.48 3.36 1.44.96.907 1.44 2.027 1.44 3.36 0 1.333-.48 2.453-1.44 3.36-.907.853-2.027 1.28-3.36 1.28zm13.84 0c-1.867 0-3.36-.667-4.48-2-1.067-1.387-1.6-3.173-1.6-5.36 0-2.987.8-5.68 2.4-8.08 1.653-2.453 4.16-4.507 7.52-6.16l.88 1.28c-1.6.96-3.067 2.32-4.4 4.08-1.28 1.707-1.92 3.44-1.92 5.2 0 .48.133.88.4 1.2.266.267.666.4 1.2.4 1.333 0 2.453.48 3.36 1.44.96.907 1.44 2.027 1.44 3.36 0 1.333-.48 2.453-1.44 3.36-.907.853-2.027 1.28-3.36 1.28z" fill="#B81734"/></svg>
